public/logo.svg

<svg fill="none" height="45" viewBox="0 0 43 45" width="43" xmlns="http://www.w3.org/2000/svg"><path d="m42.9951 21.0922c-.0297-1.9442-.3038-3.6611-.8178-5.0968-1.7822-4.9892-5.9435-4.2833-7.7194-3.9812-4.8538.8226-9.8053 1.5733-14.5932 2.2972l-1.2682.1914c-2.0605.3111-4.191.6341-6.2303 1.6152-1.8417.8854-4.30998 2.6741-5.6015 6.1617-.09346.2543-.1848.5175-.26977.7897-.65425 2.0967-.97288 4.5076-.93677 6.9722-1.17894-.9571-1.98189-2.333-2.50444-3.5474-1.63989-3.8107-1.90116-9.3024-.63938-13.3493.07009-.2274.14444-.4457.22304-.6551.81569-2.2045 2.48319-4.00211 4.69449-5.06395 1.8693-.89734 3.90853-1.20841 5.88193-1.50752l1.3085-.19742c4.7795-.72086 9.7203-1.46863 14.572-2.29119 2.052-.34697 4.0955-.39483 5.3764 1.35796-.0404.17947-.0659.36791-.0659.56832 0 1.07381.6203 1.9502 1.385 1.9502s1.385-.8734 1.385-1.9502-.6203-1.95021-1.385-1.95021c-.0085 0-.017.00299-.0276.00299-1.7397-2.659097-4.4141-2.644141-6.8591-2.23137-4.841.82256-9.7777 1.56735-14.5507 2.2882l-1.3107.19742c-2.0605.31107-4.19103.63411-6.23026 1.6152-1.84169.88537-4.31001 2.67405-5.60153 6.16167-.09346.2513-.1848.5175-.269772.7897-1.484817 4.7588-1.189552 10.9624.734972 15.4371 1.49969 3.4846 3.83206 5.5485 6.57016 5.8117.28889.027.59265.0419.90916.0419 2.24317 0 5.07477-.7388 6.77837-2.8984.7137-.9033 1.2256-1.9771 1.7184-3.012.5056-1.0589.9814-2.0579 1.6357-2.8027.4673-.5354.8794-.7956 1.2023-.7837h.0233.0234c.3548-.0209.7732.2812 1.2512.8734.2676.332.5183.679.7583 1.011.941 1.3042 1.916 2.6531 3.7471 2.7309 1.9989.0868 3.9786-.5803 5.7353-1.9293 1.9118-1.4626 3.3754-4.0439 4.2357-7.4598.444-1.7647.7647-3.4906.9602-5.1447 1.4975.1496 2.789.8764 3.5134 2.9074.4057 1.1306.6224 2.5185.6457 4.1247.0446 3.042-.5629 6.1348-1.0833 8.1927-.735 2.9223-1.9097 5.0161-3.4879 6.2245-1.5082 1.1545-3.2097 1.7348-4.9176 1.654-1.2001-.0508-1.7843-.8584-2.6659-2.0818-.257-.3559-.5204-.7208-.822-1.0947-.7838-.9721-1.5698-1.4627-2.3324-1.4417-.7307-.0329-1.4678.3978-2.2474 1.2891-.8391.9602-1.4083 2.1507-1.9564 3.2992-.4609.9632-.8943 1.8755-1.4593 2.5903-1.47 1.8635-4.3228 2.4857-6.5001 2.2793-2.1072-.2004-3.5325-1.6392-4.45018-3.0899.04036-.1824.0701-.3768.0701-.5772 0-1.0738-.62027-1.9502-1.38499-1.9502-.76471 0-1.38497.8734-1.38497 1.9502 0 1.0738.62026 1.9502 1.38497 1.9502.0085 0 .017-.003.02549-.003 1.46358 2.3989 3.39448 3.7718 5.63338 3.9841.2889.027.5927.0419.9092.0419 2.2431 0 5.0747-.7388 6.7783-2.8984.7137-.9033 1.2257-1.9771 1.7185-3.012.5055-1.0589.9814-2.0579 1.6356-2.8027.4673-.5354.8773-.7956 1.2023-.7837h.0234.0233c.342-.0149.7733.2812 1.2512.8734.2677.3321.5183.679.7583 1.011.9411 1.3042 1.9161 2.6532 3.7471 2.7309 1.9989.0868 3.9787-.5832 5.7354-1.9292 1.9118-1.4627 3.3753-4.044 4.2356-7.4599.563-2.2373 1.2257-5.6143 1.1747-9.0002zm-11.7341 3.6283c-1.5082 1.1545-3.2097 1.7348-4.9175 1.654-1.2002-.0508-1.7844-.8584-2.6659-2.0788-.257-.3559-.5204-.7208-.8221-1.0947-.7838-.9721-1.5719-1.4567-2.3345-1.4417-.7349-.027-1.4678.3978-2.2474 1.2891-.839.9602-1.4083 2.1506-1.9564 3.2992-.4609.9632-.8942 1.8754-1.4593 2.5903-1.4699 1.8635-4.3249 2.4856-6.50005 2.2793-.40784-.0389-.7902-.1287-1.14919-.2513-.14445-2.4737.11683-4.9144.76259-6.9813.0701-.2273.14445-.4456.22304-.655.8157-2.2045 2.48321-4.0021 4.69451-5.064 1.8693-.9003 3.9106-1.2084 5.8819-1.5045l1.2682-.1914c4.7922-.7239 9.75-1.4746 14.6145-2.3002.3143-.0538.6266-.0987.9367-.1316-.1826 1.4028-.463 2.8625-.8411 4.361-.735 2.9224-1.9097 5.0161-3.488 6.2245z" fill="#fff"/></svg>

<svg width="43" height="45" viewBox="0 0 43 45" fill="none" xmlns="http://www.w3.org/2000/svg">
<path id="Vector" d="M42.9951 21.0922C42.9654 19.148 42.6913 17.4311 42.1773 15.9954C40.3951 11.0062 36.2338 11.7121 34.4579 12.0142C29.6041 12.8368 24.6526 13.5875 19.8647 14.3114L18.5965 14.5028C16.536 14.8139 14.4055 15.1369 12.3662 16.118C10.5245 17.0034 8.05622 18.7921 6.7647 22.2797C6.67124 22.534 6.5799 22.7972 6.49493 23.0694C5.84068 25.1661 5.52205 27.577 5.55816 30.0416C4.37922 29.0845 3.57627 27.7086 3.05372 26.4942C1.41383 22.6835 1.15256 17.1918 2.41434 13.1449C2.48443 12.9175 2.55878 12.6992 2.63738 12.4898C3.45307 10.2853 5.12057 8.48769 7.33187 7.42585C9.20117 6.52851 11.2404 6.21744 13.2138 5.91833L14.5223 5.72091C19.3018 5.00005 24.2426 4.25228 29.0943 3.42972C31.1463 3.08275 33.1898 3.03489 34.4707 4.78768C34.4303 4.96715 34.4048 5.15559 34.4048 5.356C34.4048 6.42981 35.0251 7.3062 35.7898 7.3062C36.5545 7.3062 37.1748 6.4328 37.1748 5.356C37.1748 4.2792 36.5545 3.40579 35.7898 3.40579C35.7813 3.40579 35.7728 3.40878 35.7622 3.40878C34.0225 0.749683 31.3481 0.764639 28.9031 1.17741C24.0621 1.99997 19.1254 2.74476 14.3524 3.46561L13.0417 3.66303C10.9812 3.9741 8.85067 4.29714 6.81144 5.27823C4.96975 6.1636 2.50143 7.95228 1.20991 11.4399C1.11645 11.6912 1.02511 11.9574 0.940138 12.2296C-0.544679 16.9884 -0.249414 23.192 1.67511 27.6667C3.1748 31.1513 5.50717 33.2152 8.24527 33.4784C8.53416 33.5054 8.83792 33.5203 9.15443 33.5203C11.3976 33.5203 14.2292 32.7815 15.9328 30.6219C16.6465 29.7186 17.1584 28.6448 17.6512 27.6099C18.1568 26.551 18.6326 25.552 19.2869 24.8072C19.7542 24.2718 20.1663 24.0116 20.4892 24.0235H20.5125H20.5359C20.8907 24.0026 21.3091 24.3047 21.7871 24.8969C22.0547 25.2289 22.3054 25.5759 22.5454 25.9079C23.4864 27.2121 24.4614 28.561 26.2925 28.6388C28.2914 28.7256 30.2711 28.0585 32.0278 26.7095C33.9396 25.2469 35.4032 22.6656 36.2635 19.2497C36.7075 17.485 37.0282 15.7591 37.2237 14.105C38.7212 14.2546 40.0127 14.9814 40.7371 17.0124C41.1428 18.143 41.3595 19.5309 41.3828 21.1371C41.4274 24.1791 40.8199 27.2719 40.2995 29.3298C39.5645 32.2521 38.3898 34.3459 36.8116 35.5543C35.3034 36.7088 33.6019 37.2891 31.894 37.2083C30.6939 37.1575 30.1097 36.3499 29.2281 35.1265C28.9711 34.7706 28.7077 34.4057 28.4061 34.0318C27.6223 33.0597 26.8363 32.5691 26.0737 32.5901C25.343 32.5572 24.6059 32.9879 23.8263 33.8792C22.9872 34.8394 22.418 36.0299 21.8699 37.1784C21.409 38.1416 20.9756 39.0539 20.4106 39.7687C18.9406 41.6322 16.0878 42.2544 13.9105 42.048C11.8033 41.8476 10.378 40.4088 9.46032 38.9581C9.50068 38.7757 9.53042 38.5813 9.53042 38.3809C9.53042 37.3071 8.91015 36.4307 8.14543 36.4307C7.38072 36.4307 6.76046 37.3041 6.76046 38.3809C6.76046 39.4547 7.38072 40.3311 8.14543 40.3311C8.15393 40.3311 8.16243 40.3281 8.17092 40.3281C9.6345 42.727 11.5654 44.0999 13.8043 44.3122C14.0932 44.3392 14.397 44.3541 14.7135 44.3541C16.9566 44.3541 19.7882 43.6153 21.4918 41.4557C22.2055 40.5524 22.7175 39.4786 23.2103 38.4437C23.7158 37.3848 24.1917 36.3858 24.8459 35.641C25.3132 35.1056 25.7232 34.8454 26.0482 34.8573H26.0716H26.0949C26.4369 34.8424 26.8682 35.1385 27.3461 35.7307C27.6138 36.0628 27.8644 36.4097 28.1044 36.7417C29.0455 38.0459 30.0205 39.3949 31.8515 39.4726C33.8504 39.5594 35.8302 38.8894 37.5869 37.5434C39.4987 36.0807 40.9622 33.4994 41.8225 30.0835C42.3855 27.8462 43.0482 24.4692 42.9972 21.0833L42.9951 21.0922ZM31.261 24.7205C29.7528 25.875 28.0513 26.4553 26.3435 26.3745C25.1433 26.3237 24.5591 25.5161 23.6776 24.2957C23.4206 23.9398 23.1572 23.5749 22.8555 23.201C22.0717 22.2289 21.2836 21.7443 20.521 21.7593C19.7861 21.7323 19.0532 22.1571 18.2736 23.0484C17.4346 24.0086 16.8653 25.199 16.3172 26.3476C15.8563 27.3108 15.423 28.223 14.8579 28.9379C13.388 30.8014 10.533 31.4235 8.35785 31.2172C7.95001 31.1783 7.56765 31.0885 7.20866 30.9659C7.06421 28.4922 7.32549 26.0515 7.97125 23.9846C8.04135 23.7573 8.1157 23.539 8.19429 23.3296C9.00999 21.1251 10.6775 19.3275 12.8888 18.2656C14.7581 17.3653 16.7994 17.0572 18.7707 16.7611L20.0389 16.5697C24.8311 15.8458 29.7889 15.0951 34.6534 14.2695C34.9677 14.2157 35.28 14.1708 35.5901 14.1379C35.4075 15.5407 35.1271 17.0004 34.749 18.4989C34.014 21.4213 32.8393 23.515 31.261 24.7234V24.7205Z" fill="white"/>
</svg>
